build/finance/MoneyOutline.svg

<svg xmlns="http://www.w3.org/2000/svg" fill="none" viewBox="0 0 24 24" focusable="false"><path d="M0 0H24V24H0z"/><path fill="#74767B" fill-rule="evenodd" d="M4.49254 6.43345C3.70247 6.38098 3 6.98215 3.00001 7.77396L3 16.9289C3 17.5511 3.44581 18.0923 4.06218 18.1775C7.61763 18.6686 9.67384 17.8647 11.7715 17.0446C13.819 16.2441 15.9061 15.4282 19.4656 15.7863C20.2693 15.8672 21 15.2601 21 14.4523L21 5.10203C21 4.46654 20.5354 3.91776 19.9043 3.84381C15.9975 3.38608 13.8148 4.2457 11.6426 5.10117C9.67501 5.87604 7.71613 6.6475 4.49254 6.43345ZM12.1052 6.31621C10.1126 7.1016 7.92411 7.96417 4.4064 7.73059C4.3666 7.72795 4.33248 7.7421 4.31133 7.76081C4.30669 7.76491 4.3036 7.76847 4.30171 7.77096L4.30001 7.77345L4.3 16.8979C7.44271 17.3204 9.22927 16.6425 11.2232 15.8632L11.3046 15.8313C13.4001 15.012 15.7243 14.1033 19.5957 14.4928C19.6329 14.4966 19.6663 14.4842 19.6883 14.4654C19.6931 14.4613 19.6963 14.4577 19.6983 14.4551L19.7 14.4527L19.7 5.12884C16.3119 4.74119 14.3951 5.41855 12.424 6.19081C12.3183 6.23222 12.2118 6.27418 12.1052 6.31621ZM17.3474 6.34179C17.7064 6.34179 17.9974 6.63281 17.9974 6.99179L17.9974 12.3738C17.9974 12.7328 17.7064 13.0238 17.3474 13.0238C16.9884 13.0238 16.6974 12.7328 16.6974 12.3738L16.6974 6.99179C16.6974 6.63281 16.9884 6.34179 17.3474 6.34179ZM12.0302 14.1248C13.7438 14.1248 15.133 12.7356 15.133 11.022C15.133 9.3083 13.7438 7.9191 12.0302 7.9191C10.3165 7.9191 8.92729 9.3083 8.92729 11.022C8.92729 12.7356 10.3165 14.1248 12.0302 14.1248ZM6.64865 9.19479C7.00764 9.19479 7.29865 9.4858 7.29865 9.84479L7.29865 15.2268C7.29865 15.5858 7.00764 15.8768 6.64865 15.8768C6.28967 15.8768 5.99865 15.5858 5.99865 15.2268L5.99865 9.84479C5.99865 9.4858 6.28967 9.19479 6.64865 9.19479ZM12.0302 12.8248C13.0258 12.8248 13.833 12.0177 13.833 11.022C13.833 10.0263 13.0258 9.2191 12.0302 9.2191C11.0345 9.2191 10.2273 10.0263 10.2273 11.022C10.2273 12.0177 11.0345 12.8248 12.0302 12.8248ZM20.4608 17.2308C16.2191 16.6099 13.8372 17.5153 11.6031 18.3885L11.534 18.4155C9.39741 19.2508 7.40529 20.0297 3.79557 19.4567C3.44103 19.4005 3.10799 19.6423 3.05172 19.9968C2.99544 20.3514 3.23724 20.6844 3.59179 20.7407C7.54997 21.3689 9.80743 20.4863 12.0088 19.6257L12.0764 19.5993C14.2282 18.7582 16.3591 17.9443 20.2725 18.5171C20.6277 18.5691 20.9578 18.3233 21.0098 17.9681C21.0618 17.6129 20.816 17.2828 20.4608 17.2308Z"/></svg>

<svg xmlns="http://www.w3.org/2000/svg" fill="none" viewBox="0 0 24 24" focusable="false"><path fill="#74767B" fill-rule="evenodd" d="M4.49 6.43C3.7 6.38 3 6.98 3 7.77v9.15c0 .63.44 1.17 1.06 1.25 3.55.49 5.61-.31 7.71-1.13 2.04-.8 4.13-1.62 7.69-1.26.8.08 1.54-.52 1.54-1.33V5.1c0-.64-.47-1.19-1.1-1.26-3.91-.46-6.09.4-8.26 1.26-1.97.77-3.93 1.54-7.15 1.33m7.61-.12c-1.99.79-4.18 1.65-7.7 1.42-.04-.01-.07.01-.09.03-.01 0-.01 0-.01.01v9.12c3.14.43 4.92-.25 6.92-1.03l.08-.03c2.1-.82 4.42-1.73 8.29-1.34q.06 0 .09-.03c.01 0 .01-.01.01-.01h.01V5.12c-3.39-.38-5.31.29-7.28 1.07-.11.04-.21.08-.32.12m5.24.03c.36 0 .65.29.65.65v5.38c0 .36-.29.65-.65.65s-.65-.29-.65-.65V6.99c0-.36.29-.65.65-.65m-2.21 4.68a3.105 3.105 0 1 1-6.21-.01 3.105 3.105 0 0 1 6.21.01M6.64 9.19c.36 0 .65.29.65.65v5.38c0 .36-.29.65-.65.65s-.65-.29-.65-.65V9.84c0-.36.29-.65.65-.65m7.19 1.83a1.805 1.805 0 0 1-3.61 0c0-1 .81-1.81 1.81-1.81.99 0 1.8.81 1.8 1.81m6.63 6.21c-4.25-.63-6.63.28-8.86 1.15l-.07.03c-2.14.84-4.13 1.61-7.74 1.04a.653.653 0 0 0-.2 1.29c3.95.62 6.21-.26 8.41-1.12l.07-.03c2.15-.84 4.28-1.65 8.2-1.08.35.05.68-.19.73-.55a.636.636 0 0 0-.54-.73"/></svg>
